img/stars-z1.svg

<svg width="374" height="394" viewBox="0 0 374 394" fill="none" xmlns="http://www.w3.org/2000/svg">
<path fill-rule="evenodd" clip-rule="evenodd" d="M31.0153 6.79899C31.0153 6.14961 29.6885 5.58325 27.7061 5.27218C26.7055 5.11442 25.9172 4.32565 25.7604 3.32211C25.4494 1.33532 24.8849 0.00551205 24.2376 0.00551205C23.5903 0.00551205 23.0258 1.33532 22.7148 3.32211C22.558 4.32565 21.7691 5.11506 20.7685 5.27218C18.7848 5.58325 17.4542 6.14961 17.4542 6.79899C17.4542 7.45091 18.7836 8.0173 20.7659 8.3271C21.7679 8.48359 22.558 9.27362 22.7148 10.2791C23.0258 12.2677 23.5903 13.5969 24.2376 13.5969C24.8849 13.5969 25.4494 12.2671 25.7604 10.2791C25.9172 9.27425 26.7067 8.48359 27.7093 8.3271C29.6904 8.0173 31.016 7.45091 31.016 6.79899H31.0153Z" fill="white"/>
<path fill-rule="evenodd" clip-rule="evenodd" d="M328.428 110.74C328.272 110.034 326.691 109.737 324.454 109.876C323.325 109.947 322.277 109.276 321.865 108.221C321.048 106.131 320.112 104.817 319.407 104.973C318.701 105.13 318.406 106.716 318.544 108.956C318.615 110.087 317.945 111.14 316.892 111.553C314.806 112.371 313.491 113.309 313.647 114.017C313.804 114.729 315.39 115.024 317.624 114.883C318.754 114.811 319.804 115.482 320.218 116.539C321.035 118.632 321.97 119.944 322.675 119.787C323.381 119.632 323.676 118.045 323.537 115.802C323.466 114.67 324.137 113.619 325.191 113.206C327.276 112.39 328.585 111.452 328.427 110.74H328.428Z" fill="white"/>
<path fill-rule="evenodd" clip-rule="evenodd" d="M374 350.876C374 350.023 372.254 349.279 369.648 348.869C368.332 348.663 367.295 347.624 367.089 346.304C366.68 343.693 365.937 341.944 365.087 341.944C364.236 341.944 363.493 343.692 363.085 346.304C362.878 347.624 361.841 348.663 360.525 348.869C357.918 349.279 356.168 350.023 356.168 350.876C356.168 351.734 357.916 352.479 360.523 352.886C361.84 353.092 362.878 354.131 363.085 355.452C363.493 358.066 364.236 359.815 365.087 359.815C365.937 359.815 366.68 358.067 367.089 355.452C367.295 354.131 368.333 353.092 369.651 352.886C372.255 352.48 373.999 351.735 374 350.877V350.876Z" fill="white"/>
<path fill-rule="evenodd" clip-rule="evenodd" d="M327.478 46.7971C326.48 45.9792 325.009 46.13 324.195 47.131C323.38 48.1319 323.529 49.6056 324.528 50.4216C325.526 51.2376 326.997 51.0887 327.811 50.0877C328.625 49.0867 328.477 47.6131 327.478 46.7971H327.478Z" fill="white"/>
<path fill-rule="evenodd" clip-rule="evenodd" d="M252.7 57.6052C251.872 56.1898 250.055 55.7147 248.643 56.5446C247.231 57.3746 246.756 59.196 247.585 60.6113C248.413 62.0267 250.23 62.5018 251.642 61.6719C253.054 60.842 253.528 59.0205 252.7 57.6058L252.7 57.6052Z" fill="white"/>
<path fill-rule="evenodd" clip-rule="evenodd" d="M83.1264 389.929C83.342 387.988 81.9475 386.238 80.0107 386.021C78.0725 385.804 76.3272 387.202 76.1104 389.144C75.8936 391.086 77.2893 392.835 79.2262 393.052C81.1643 393.27 82.9096 391.871 83.1264 389.93V389.929Z" fill="white"/>
<path fill-rule="evenodd" clip-rule="evenodd" d="M107.981 325.761C108.092 324.763 107.374 323.862 106.378 323.751C105.382 323.639 104.485 324.358 104.372 325.357C104.261 326.355 104.979 327.255 105.975 327.367C106.972 327.479 107.87 326.76 107.981 325.762V325.761Z" fill="white"/>
<path fill-rule="evenodd" clip-rule="evenodd" d="M5.84508 152.605C5.67757 150.991 4.23631 149.821 2.6269 149.989C1.01749 150.156 -0.151324 151.601 0.0168234 153.213C0.184971 154.827 1.6256 155.998 3.23501 155.829C4.84442 155.662 6.01323 154.217 5.84508 152.605Z" fill="white"/>
</svg>

<svg width="374" height="394" fill="none" xmlns="http://www.w3.org/2000/svg"><path fill-rule="evenodd" clip-rule="evenodd" d="M31.015 6.799c0-.65-1.326-1.216-3.309-1.527a2.341 2.341 0 01-1.946-1.95c-.31-1.987-.875-3.316-1.522-3.316-.648 0-1.212 1.33-1.523 3.316a2.341 2.341 0 01-1.947 1.95c-1.983.311-3.314.878-3.314 1.527 0 .652 1.33 1.218 3.312 1.528a2.342 2.342 0 011.949 1.952c.31 1.989.875 3.318 1.523 3.318.647 0 1.211-1.33 1.522-3.318a2.342 2.342 0 011.95-1.952c1.98-.31 3.306-.876 3.306-1.528zM328.428 110.74c-.156-.706-1.737-1.003-3.974-.864a2.608 2.608 0 01-2.589-1.655c-.817-2.09-1.753-3.404-2.458-3.248-.706.157-1.001 1.743-.863 3.983a2.618 2.618 0 01-1.652 2.597c-2.086.818-3.401 1.756-3.245 2.464.157.712 1.743 1.007 3.977.866a2.612 2.612 0 012.594 1.656c.817 2.093 1.752 3.405 2.457 3.248.706-.155 1.001-1.742.862-3.985a2.616 2.616 0 011.654-2.596c2.085-.816 3.394-1.754 3.236-2.466h.001zM374 350.876c0-.853-1.746-1.597-4.352-2.007a3.077 3.077 0 01-2.559-2.565c-.409-2.611-1.152-4.36-2.002-4.36-.851 0-1.594 1.748-2.002 4.36a3.08 3.08 0 01-2.56 2.565c-2.607.41-4.357 1.154-4.357 2.007 0 .858 1.748 1.603 4.355 2.01a3.08 3.08 0 012.562 2.566c.408 2.614 1.151 4.363 2.002 4.363.85 0 1.593-1.748 2.002-4.363a3.078 3.078 0 012.562-2.566c2.604-.406 4.348-1.151 4.349-2.009v-.001zM327.478 46.797a2.328 2.328 0 00-3.283.334c-.815 1-.666 2.475.333 3.29a2.33 2.33 0 003.283-.333 2.343 2.343 0 00-.333-3.29zM252.7 57.605a2.961 2.961 0 00-4.057-1.06 2.975 2.975 0 00-1.058 4.066 2.961 2.961 0 004.057 1.06 2.976 2.976 0 001.058-4.065zM83.126 389.929a3.536 3.536 0 00-3.115-3.908 3.532 3.532 0 00-3.9 3.123 3.535 3.535 0 003.115 3.908 3.53 3.53 0 003.9-3.122v-.001zM107.981 325.761a1.82 1.82 0 00-1.603-2.01 1.82 1.82 0 00-.403 3.616 1.815 1.815 0 002.006-1.605v-.001zM5.845 152.605a2.931 2.931 0 10-5.828.608 2.93 2.93 0 105.828-.608z" fill="#fff"/></svg>
